X: 14321
T: Gallagher's Frolics
R: jig
M: 6/8
K: Edorian
D|:E3 GFE|BAB dBA|BdB BAB|GAB AFD|
EDE GFE|BAB dBA|BAG FAF|1 GED E2 D:|2 GEE E2 B||
|:ede gfe|g2a bge|dcd fed|fag fed|
ede gfe|dfe dBA|BAG FAF|1 GED E2B:|2 GED E2 D||

